voigtlander.svg

<?xml version="1.0" encoding="utf-8"?>
<svg viewBox="0 0 500 500" xmlns="http://www.w3.org/2000/svg">
  <path style="stroke: none; fill-rule: nonzero; fill-opacity: 1; fill: rgb(255, 219, 0);" d="M 430.08266 233.36128 C 430.08266 233.36128 431.95017 230.35947 429.14891 228.6879 C 426.08537 226.87631 423.20019 228.85418 420.35698 231.70722 C 417.93342 234.11393 416.29674 240.23133 416.29674 240.23133 C 425.09917 239.01485 430.08266 233.36128 430.08266 233.36128 M 378.49559 230.2632 C 378.49559 230.2632 372.34753 227.05134 366.9024 236.37185 C 364.23754 240.91396 364.79359 248.72918 368.92727 249.23677 C 371.59213 249.57809 377.46742 248.20408 379.86999 241.86788 C 382.26207 235.51419 383.42663 232.9237 378.49559 230.2632 M 268.65929 235.59295 C 268.65929 235.59295 261.0529 247.60021 268.25012 250.1557 C 275.44734 252.71118 280.24199 242.03417 280.65116 241.59659 C 281.04984 241.159 286.24317 233.25626 280.51477 230.8058 C 274.78637 228.36409 268.65929 235.59295 268.65929 235.59295 M 242.82903 231.47968 C 242.82903 231.47968 246.46961 229.39679 249.722 228.13655 C 254.91533 226.12367 259.74145 222.553 260.51783 221.47654 C 262.99384 218.0634 263.31908 216.58437 260.38144 215.46416 C 257.45429 214.3527 253.51995 216.86443 250.80263 218.79854 C 247.02566 221.47654 242.82903 231.47968 242.82903 231.47968 M 173.07055 230.58701 C 173.07055 230.58701 164.92909 228.58288 160.94229 239.69748 C 157.48007 249.3768 165.07597 251.15339 165.07597 251.15339 C 165.07597 251.15339 171.69615 251.73099 175.34722 243.59196 C 181.06513 230.8058 173.33284 230.70078 173.33284 230.70078 M 50.70731 256.93822 C 50.70731 256.93822 43.9927 261.40156 42.81764 266.1187 C 41.43276 271.74601 42.94354 274.83534 48.05294 274.73033 C 52.42793 274.63406 53.90724 271.93855 54.18002 270.27574 C 54.43182 268.62168 54.82001 265.43608 53.24627 261.16527 C 52.16564 258.26847 50.70731 256.93822 50.70731 256.93822 M 68.56397 211.45591 C 67.82956 210.31819 65.50043 207.12384 64.56668 206.90505 C 63.63293 206.68626 62.69918 207.79772 62.69918 207.79772 C 62.69918 207.79772 62.3005 208.79541 61.50314 214.13391 C 60.70578 219.47242 61.50314 222.91182 61.50314 222.91182 C 61.50314 222.91182 61.56609 223.84824 62.83557 223.69071 C 65.07028 223.41941 70.70425 219.79623 70.70425 219.79623 C 70.70425 219.79623 70.29508 214.13391 68.56397 211.45591 M 215.6034 224.91594 C 215.6034 224.91594 202.40499 238.69979 201.85943 239.0411 C 201.33485 239.38242 207.87111 242.82182 207.87111 242.82182 C 207.87111 242.82182 210.39957 236.14431 211.06054 234.92783 C 211.73201 233.7026 215.6034 224.91594 215.6034 224.91594 M 171.11912 261.81289 C 171.11912 261.81289 162.7993 264.4909 160.13444 266.93261 C 157.48007 269.39182 157.34368 270.48578 157.74236 271.60599 C 158.14104 272.71745 159.20069 275.28168 164.95007 273.17253 C 170.66798 271.05463 171.11912 261.81289 171.11912 261.81289 M 294.46857 212.92618 L 294.20628 214.91281 L 294.94069 215.84923 C 294.94069 215.84923 295.1715 220.52262 293.48236 222.01039 L 293.50334 223.79573 C 293.50334 223.79573 296.61934 223.55068 298.6652 222.12417 C 303.70115 218.67602 302.44216 217.83586 304.27819 213.92387 C 304.59293 213.2675 294.46857 212.92618 294.46857 212.92618 M 274.78637 213.13622 L 274.64998 215.1316 L 275.44734 216.02427 C 275.44734 216.02427 275.9929 220.6889 274.3772 222.24669 L 274.51359 224.02327 C 274.51359 224.02327 277.6086 223.6382 279.58102 222.12417 C 284.39665 218.47473 283.05373 217.67833 284.64845 213.68758 C 284.92123 213.0137 274.78637 213.13622 274.78637 213.13622 M 128.41841 213.13622 L 128.29251 215.1316 L 129.08987 216.02427 C 129.08987 216.02427 128.81709 221.46779 127.22237 222.12417 C 125.61716 222.8068 127.08597 222.8068 127.08597 222.8068 C 127.08597 222.8068 131.08327 223.46317 133.21305 222.12417 C 135.34284 220.81142 138.95195 217.56456 140.54667 213.58256 C 140.80896 212.90868 128.41841 213.13622 128.41841 213.13622 M 21.76105 208.82166 C 26.66062 207.36014 33.6585 200.94518 33.6585 200.94518 C 33.6585 200.94518 33.30179 205.60105 35.05388 209.97688 C 36.79548 214.36146 44.45433 224.24207 44.45433 224.24207 C 44.45433 224.24207 48.77686 229.02047 50.86468 232.59114 C 53.25676 236.70441 57.78912 243.2594 57.78912 243.2594 C 57.78912 243.2594 62.45787 237.04573 65.83616 232.16231 C 70.31606 225.69484 70.55737 222.23794 70.55737 222.23794 C 70.55737 222.23794 63.7903 227.25263 58.14584 226.61376 C 54.31641 226.18493 54.3269 221.249 54.3269 221.249 C 54.3269 221.249 54.29543 212.02476 56.03703 207.07133 C 57.78912 202.10915 61.10446 202.678 62.85655 202.678 C 64.60865 202.678 72.11012 205.96862 73.70484 217.97589 L 85.24558 209.90687 C 85.24558 209.90687 88.47698 206.56374 95.24405 204.11327 C 99.25183 202.678 110.83453 199.90373 125.63814 200.12252 L 411.70142 200 C 411.70142 200 454.13985 200.68263 474.34662 212.2348 C 493.01113 222.91182 489.13974 230.2632 489.13974 230.2632 C 489.13974 230.2632 486.2021 240.12631 474.88169 240.38011 C 469.81426 240.47637 462.42819 236.75692 462.42819 236.75692 C 462.42819 236.75692 461.55739 240.91396 459.41711 245.36854 C 457.28732 249.82313 451.90514 259.23991 451.90514 259.23991 L 437.34284 259.01236 L 451.01336 233.61508 L 417.8285 255.71299 C 417.8285 255.71299 414.98529 257.74338 410.07523 257.83964 C 400.23413 258.04968 401.43017 249.3768 401.43017 249.3768 L 392.23955 254.33023 C 392.23955 254.33023 385.39905 258.97736 382.88107 259.01236 C 379.62868 259.05612 376.83792 254.63654 377.89757 251.41593 L 376.14548 251.71349 C 376.14548 251.71349 371.81246 260.81521 364.11164 259.94879 C 355.91772 259.01236 356.62066 252.99123 356.62066 252.99123 L 354.51185 253.38506 C 354.51185 253.38506 351.57421 255.59922 348.53165 256.82445 C 346.01367 257.81339 342.83473 259.37118 341.44984 258.49602 C 340.07544 257.62085 339.39349 256.88572 338.71154 254.63654 C 337.31616 250.04193 336.25651 239.0236 335.20735 235.96052 C 334.78769 234.70904 331.86054 235.59295 331.86054 235.59295 C 331.86054 235.59295 327.87374 238.29721 325.07249 245.87614 C 322.27124 253.46382 320.06801 259.60748 320.06801 259.60748 L 306.77518 259.60748 L 313.86749 242.38423 L 316.92054 235.25164 L 315.18943 235.36541 L 289.99915 255.03912 C 289.99915 255.03912 284.05043 259.31867 280.53575 259.49371 C 276.01388 259.7125 275.60471 254.26897 275.60471 254.26897 C 275.60471 254.26897 268.397 259.01236 264.17939 259.01236 C 259.95128 259.01236 255.33499 259.34493 254.91533 253.69136 L 255.05172 248.64166 C 251.59999 251.19714 243.40607 256.22059 243.40607 256.22059 C 243.40607 256.22059 240.40548 259.01236 235.13871 259.01236 C 229.86145 259.01236 228.30869 256.14182 227.61625 252.93872 C 226.91331 249.72687 227.07069 245.36854 227.07069 245.36854 L 216.62108 247.33767 C 216.62108 247.33767 214.86898 253.46382 215.21521 254.92535 C 215.56143 256.37812 214.94243 260.28135 214.94243 260.28135 L 199.13162 260.28135 L 204.81806 248.5979 L 204.72363 247.04011 L 197.48444 243.92452 L 185.13586 252.58866 C 185.13586 252.58866 182.61788 255.90553 181.28545 260.75394 C 179.355 267.84278 174.6233 270.75708 168.55917 273.61887 C 163.35535 276.06933 157.9417 276.32313 155.48667 273.39132 C 153.04213 270.47703 157.62695 265.35731 160.29181 263.712 C 165.75792 260.38637 172.60892 256.47439 172.60892 256.47439 L 174.15118 250.93459 C 174.15118 250.93459 164.38352 258.88984 157.36466 259.94879 C 147.76487 261.38406 145.9813 256.50064 145.63508 254.16395 C 145.27837 251.82726 145.22591 248.93047 145.22591 248.93047 C 145.22591 248.93047 143.09612 250.1557 138.83654 252.05481 C 133.35994 254.46151 133.35994 254.4265 124.95619 257.83964 C 124.95619 257.83964 120.7071 260.57891 116.16425 260.38637 C 108.44245 260.04506 110.69814 253.15751 110.69814 253.15751 L 115.1046 247.04011 L 119.7104 236.54688 C 119.7104 236.54688 115.85999 238.58602 112.3663 239.45243 C 108.8726 240.32759 105.36842 241.78912 105.36842 241.78912 C 105.36842 241.78912 95.62174 253.75262 91.37266 256.37812 C 87.13406 259.01236 82.02466 260.67518 78.17425 260.38637 C 74.33434 260.09757 71.52259 257.93591 71.42817 253.75262 C 71.3967 251.26716 72.18356 244.37086 72.18356 244.37086 L 64.787 246.75131 L 65.12273 245.82363 L 88.5819 227.78648 L 91.50905 228.13655 L 94.16341 228.46911 C 94.16341 228.46911 88.5819 232.73992 86.8298 235.66297 C 85.07771 238.58602 82.63317 245.87614 87.53274 247.61772 C 92.42181 249.3768 99.50362 243.92452 98.56987 241.37779 C 98.56987 241.37779 94.53062 242.09543 93.82768 239.45243 C 93.12475 236.83569 95.69518 232.57363 97.32138 231.27839 C 100.0387 229.14299 104.11992 227.61145 106.43855 228.81043 C 109.23981 230.2632 108.33753 234.21019 107.6346 235.36541 L 107.6346 238.04341 C 107.6346 238.04341 114.70592 237.92964 118.69271 233.48381 C 121.55692 230.30696 123.90703 227.78648 126.70828 227.49768 C 129.50953 227.20887 133.35994 227.49768 133.35994 227.49768 L 137.90279 228.08404 C 137.90279 229.53681 128.8066 248.79919 128.8066 248.79919 C 128.8066 248.79919 128.10366 251.35467 129.49904 251.71349 C 132.04849 252.34361 134.06287 250.83833 134.06287 250.83833 C 134.06287 250.83833 144.82723 247.2589 145.76098 246.26121 C 145.76098 246.26121 149.08681 235.91676 155.21389 232.47737 C 159.40003 230.13192 162.74684 228.9592 165.88382 228.38159 C 169.03129 227.78648 175.75639 227.80399 178.54715 231.47968 L 179.21861 228.02278 L 192.40652 227.80399 L 186.55222 247.2589 C 186.55222 247.2589 189.16463 246.49751 192.14423 244.26584 C 195.52252 241.73661 204.72363 232.67865 207.8816 228.81043 C 213.81983 221.51155 221.59408 213.58256 221.59408 213.58256 L 222.53833 213.0137 L 230.27062 213.23249 C 220.18821 234.70904 219.78953 233.81637 218.71939 237.99091 C 217.67024 242.09543 216.9673 244.13456 216.9673 244.13456 C 216.9673 244.13456 225.87465 243.70573 228.16181 241.50032 C 228.16181 241.50032 229.87194 232.81868 238.99961 224.86343 C 245.00079 219.6562 252.74357 212.29607 261.40961 213.63507 C 267.76751 214.6065 264.7879 218.71102 263.71776 220.4701 C 262.67909 222.22043 259.32179 226.85881 243.20673 233.32628 C 243.20673 233.32628 240.54187 238.62102 240.05926 240.91396 C 238.80027 246.82132 240.47892 252.69368 244.66506 251.82726 C 248.86169 250.94335 256.14284 244.14332 257.0661 242.13919 C 258.96508 238.07842 261.98665 232.47737 269.85533 229.58932 C 273.14968 228.38159 277.9863 227.3664 280.79804 228.25907 C 283.28454 229.03797 286.65234 231.25214 286.65234 231.25214 L 287.85887 227.3664 L 300.12352 227.3664 C 300.12352 227.3664 300.65859 228.36409 298.92748 232.70491 C 297.18588 237.02822 288.91852 250.26947 288.91852 250.26947 C 288.91852 250.26947 290.49226 251.71349 293.58727 248.93047 C 296.69278 246.15619 313.17504 233.92139 313.17504 233.92139 C 313.17504 233.92139 320.51915 227.49768 324.02333 227.20887 C 327.50653 226.91132 329.61534 228.95045 329.61534 228.95045 L 330.9163 234.03516 L 333.17199 232.83618 C 333.17199 232.83618 336.0152 229.29177 340.24331 228.9242 C 343.05505 228.6704 346.29695 230.50825 346.64317 232.24982 C 346.99988 234.00015 348.51067 249.67436 348.51067 249.67436 C 348.51067 249.67436 348.68903 252.58866 350.77685 252.58866 C 352.87516 252.58866 355.84428 249.95441 355.84428 249.95441 C 355.84428 249.95441 355.59248 241.78912 361.70907 234.25395 C 367.03879 227.69022 373.18685 227.00759 375.43205 227.13886 C 379.62868 227.37515 383.48958 230.41198 383.48958 230.41198 L 389.5642 213.23249 L 403.57046 213.23249 L 388.73537 252.00229 C 388.73537 252.00229 389.51174 253.45507 390.90712 253.15751 C 392.29201 252.86871 400.49642 247.04011 400.49642 247.04011 C 400.49642 247.04011 404.30486 235.88176 412.37289 230.91957 C 420.40943 225.96614 427.11355 226.01865 430.09316 226.91132 C 432.78949 227.72522 434.36323 231.70722 431.56198 234.03516 C 428.76073 236.37185 424.76344 240.6339 416.01346 242.38423 C 416.01346 242.38423 414.14596 247.04886 415.68823 248.71167 C 416.63247 249.70936 419.38126 251.61722 421.8258 250.1557 C 424.27033 248.69417 453.4579 228.08404 453.4579 228.08404 C 453.4579 228.08404 457.60207 226.78004 459.6794 227.47142 C 463.00523 228.58288 463.24653 233.32628 463.24653 233.32628 L 467.93627 230.91957 L 468.34544 228.36409 C 468.34544 228.36409 471.80766 227.91776 473.53877 230.70078 C 474.19974 231.76848 479.8547 234.15768 483.00217 231.81224 C 486.98897 228.81043 484.19821 224.13705 484.19821 224.13705 C 484.19821 224.13705 481.37598 217.232 463.95996 211.1496 C 447.93933 205.5748 422.08808 205.02345 422.08808 205.02345 L 126.36206 205.31225 C 126.36206 205.31225 107.81295 205.88986 103.63731 206.48497 C 99.41969 207.07133 86.8298 211.44716 84.37477 213.48629 C 81.94073 215.51667 73.41108 220.10254 73.41108 220.10254 C 73.41108 220.10254 72.84453 224.17205 71.78488 226.79755 C 70.73573 229.43179 64.97585 237.91214 61.63953 242.96184 C 58.5655 247.61772 60.0658 248.23908 60.0658 248.23908 C 60.0658 248.23908 63.73785 255.51171 62.34247 261.3403 C 60.93659 267.18641 59.89793 272.53366 54.51575 275.01038 C 50.52895 276.83072 44.96842 278.61606 41.36981 273.83766 C 40.42557 272.58617 38.60003 268.62168 40.46753 264.4909 C 42.80715 259.32742 48.87128 254.26897 48.46211 253.70887 C 45.23071 249.23677 32.20017 239.15487 30.46906 231.36591 C 28.28681 221.53781 28.73795 213.34626 28.73795 213.34626 C 28.73795 213.34626 24.38395 219.22737 19.66274 221.07397 C 15.55004 222.68427 11.04916 225.28351 11.04916 225.28351 L 10 212.44484 C 10 212.44484 12.32913 211.44716 15.46611 210.85204 C 18.61358 210.27443 21.76105 208.82166 21.76105 208.82166"/>
</svg>

<svg xmlns="http://www.w3.org/2000/svg" viewBox="0 0 500 500">
  <path fill="#ffdb00" d="M430.083 233.361s1.867-3.002-.934-4.673c-3.064-1.812-5.949.166-8.792 3.02-2.424 2.406-4.06 8.523-4.06 8.523 8.802-1.216 13.786-6.87 13.786-6.87m-51.587-3.098s-6.148-3.212-11.594 6.109c-2.664 4.542-2.108 12.357 2.025 12.865 2.665.341 8.54-1.033 10.943-7.37 2.392-6.353 3.557-8.943-1.374-11.604m-109.837 5.33s-7.606 12.007-.409 14.563c7.197 2.555 11.992-8.122 12.401-8.56.399-.437 5.592-8.34-.136-10.79-5.729-2.442-11.856 4.787-11.856 4.787m-25.83-4.113s3.64-2.083 6.893-3.343c5.193-2.013 10.02-5.584 10.796-6.66 2.476-3.414 2.801-4.893-.137-6.013-2.927-1.111-6.861 1.4-9.578 3.335-3.777 2.678-7.974 12.68-7.974 12.68m-69.758-.892s-8.142-2.004-12.129 9.11c-3.462 9.68 4.134 11.456 4.134 11.456s6.62.578 10.271-7.561c5.718-12.786-2.014-12.891-2.014-12.891M50.707 256.938s-6.714 4.464-7.89 9.18c-1.384 5.628.127 8.717 5.236 8.612 4.375-.096 5.854-2.791 6.127-4.454.252-1.654.64-4.84-.934-9.11-1.08-2.898-2.539-4.228-2.539-4.228m17.857-45.482c-.734-1.138-3.064-4.332-3.997-4.551-.934-.219-1.868.893-1.868.893s-.398.997-1.196 6.336c-.797 5.338 0 8.778 0 8.778s.063.936 1.333.779c2.234-.272 7.868-3.895 7.868-3.895s-.409-5.662-2.14-8.34m147.04 13.46s-13.199 13.784-13.745 14.125c-.524.341 6.012 3.78 6.012 3.78s2.529-6.677 3.19-7.893c.671-1.225 4.542-10.012 4.542-10.012m-44.484 36.897s-8.32 2.678-10.985 5.12c-2.654 2.459-2.79 3.553-2.392 4.673.399 1.111 1.459 3.676 7.208 1.567 5.718-2.118 6.17-11.36 6.17-11.36m123.349-48.887l-.263 1.987.735.936s.23 4.674-1.459 6.161l.021 1.786s3.116-.245 5.162-1.672c5.036-3.448 3.777-4.288 5.613-8.2.315-.656-9.81-.998-9.81-.998m-19.682.21l-.136 1.996.797.892s.546 4.665-1.07 6.223l.137 1.776s3.095-.385 5.067-1.899c4.816-3.65 3.473-4.446 5.067-8.436.273-.674-9.862-.552-9.862-.552m-146.368 0l-.125 1.996.797.892s-.273 5.444-1.868 6.1c-1.605.683-.136.683-.136.683s3.997.656 6.127-.683c2.13-1.313 5.739-4.56 7.334-8.541.262-.674-12.129-.447-12.129-.447m-106.657-4.314c4.9-1.462 11.897-7.877 11.897-7.877s-.356 4.656 1.396 9.032c1.741 4.384 9.4 14.265 9.4 14.265s4.323 4.778 6.41 8.35c2.393 4.112 6.925 10.667 6.925 10.667s4.669-6.213 8.047-11.097c4.48-6.467 4.721-9.924 4.721-9.924s-6.767 5.015-12.411 4.376c-3.83-.43-3.82-5.365-3.82-5.365s-.03-9.224 1.711-14.178c1.752-4.962 5.067-4.393 6.82-4.393 1.752 0 9.253 3.29 10.848 15.298l11.54-8.07s3.232-3.342 9.999-5.793c4.008-1.435 15.59-4.21 30.394-3.99L411.701 200s42.439.683 62.646 12.235c18.664 10.677 14.793 18.028 14.793 18.028s-2.938 9.863-14.258 10.117c-5.068.096-12.454-3.623-12.454-3.623s-.87 4.157-3.01 8.612c-2.13 4.454-7.513 13.87-7.513 13.87l-14.562-.227 13.67-25.397-33.184 22.098s-2.844 2.03-7.754 2.127c-9.84.21-8.645-8.463-8.645-8.463l-9.19 4.953s-6.841 4.647-9.359 4.682c-3.252.044-6.043-4.375-4.983-7.596l-1.753.297s-4.333 9.102-12.033 8.236c-8.194-.937-7.491-6.958-7.491-6.958l-2.11.394s-2.937 2.214-5.98 3.44c-2.517.988-5.696 2.546-7.081 1.671-1.375-.875-2.057-1.61-2.738-3.86-1.396-4.594-2.455-15.612-3.505-18.675-.42-1.252-3.346-.368-3.346-.368s-3.987 2.704-6.789 10.283c-2.8 7.588-5.004 13.731-5.004 13.731h-13.293l7.092-17.223 3.054-7.132-1.732.113L290 255.04s-5.949 4.28-9.463 4.455c-4.522.218-4.931-5.225-4.931-5.225s-7.208 4.743-11.426 4.743c-4.228 0-8.844.333-9.264-5.32l.137-5.05c-3.452 2.555-11.646 7.579-11.646 7.579s-3 2.791-8.267 2.791c-5.278 0-6.83-2.87-7.523-6.073-.703-3.212-.545-7.57-.545-7.57l-10.45 1.969s-1.752 6.126-1.406 7.587c.346 1.453-.273 5.356-.273 5.356h-15.81l5.686-11.683-.094-1.558-7.24-3.115-12.348 8.664s-2.518 3.317-3.85 8.165c-1.931 7.089-6.663 10.003-12.727 12.865-5.204 2.45-10.617 2.704-13.072-.228-2.445-2.914 2.14-8.034 4.805-9.679 5.466-3.326 12.317-7.238 12.317-7.238l1.542-5.54s-9.767 7.956-16.786 9.015c-9.6 1.435-11.384-3.448-11.73-5.785-.357-2.337-.41-5.234-.41-5.234s-2.129 1.226-6.388 3.125c-5.477 2.407-5.477 2.371-13.88 5.785 0 0-4.25 2.739-8.793 2.546-7.722-.34-5.466-7.228-5.466-7.228l4.407-6.118 4.605-10.493s-3.85 2.039-7.344 2.905c-3.493.876-6.998 2.337-6.998 2.337s-9.746 11.964-13.995 14.59c-4.239 2.633-9.348 4.296-13.199 4.007-3.84-.288-6.651-2.45-6.746-6.633-.031-2.486.756-9.382.756-9.382l-7.397 2.38.336-.927 23.459-18.038 2.927.35 2.654.333s-5.581 4.27-7.333 7.194c-1.752 2.923-4.197 10.213.703 11.955 4.889 1.759 11.97-3.693 11.037-6.24 0 0-4.04.717-4.742-1.926-.703-2.616 1.867-6.878 3.493-8.174 2.718-2.135 6.799-3.667 9.118-2.468 2.8 1.453 1.899 5.4 1.196 6.555v2.678s7.07-.113 11.058-4.56c2.864-3.176 5.214-5.697 8.015-5.985 2.802-.29 6.652 0 6.652 0l4.543.586c0 1.453-9.096 20.715-9.096 20.715s-.703 2.556.692 2.914c2.55.63 4.564-.875 4.564-.875s10.764-3.58 11.698-4.577c0 0 3.326-10.344 9.453-13.784 4.186-2.345 7.533-3.518 10.67-4.095 3.147-.596 9.872-.578 12.663 3.098l.672-3.457 13.188-.219-5.855 19.455s2.613-.761 5.592-2.993c3.379-2.53 12.58-11.587 15.738-15.456 5.938-7.298 13.712-15.227 13.712-15.227l.944-.57 7.733.22c-10.083 21.476-10.481 20.583-11.552 24.758-1.049 4.104-1.752 6.144-1.752 6.144s8.908-.43 11.195-2.635c0 0 1.71-8.681 10.838-16.637 6-5.207 13.744-12.567 22.41-11.228 6.358.972 3.378 5.076 2.308 6.835-1.039 1.75-4.396 6.389-20.511 12.856 0 0-2.665 5.295-3.148 7.588-1.259 5.907.42 11.78 4.606 10.913 4.197-.884 11.478-7.684 12.401-9.688 1.9-4.06 4.92-9.662 12.79-12.55 3.294-1.207 8.13-2.223 10.942-1.33 2.487.779 5.854 2.993 5.854 2.993l1.207-3.886h12.265s.535.998-1.197 5.339c-1.741 4.323-10.008 17.564-10.008 17.564s1.573 1.444 4.668-1.339c3.106-2.774 19.588-15.009 19.588-15.009s7.344-6.423 10.848-6.712c3.484-.298 5.592 1.741 5.592 1.741l1.301 5.085 2.256-1.199s2.843-3.544 7.071-3.912c2.812-.254 6.054 1.584 6.4 3.326.357 1.75 1.868 17.424 1.868 17.424s.178 2.915 2.266 2.915c2.098 0 5.067-2.635 5.067-2.635s-.252-8.165 5.865-15.7c5.33-6.564 11.478-7.246 13.723-7.115 4.197.236 8.058 3.273 8.058 3.273l6.074-17.18h14.006l-14.835 38.77s.777 1.453 2.172 1.156c1.385-.29 9.59-6.118 9.59-6.118s3.808-11.158 11.876-16.12c8.036-4.954 14.74-4.901 17.72-4.009 2.696.814 4.27 4.796 1.469 7.124-2.801 2.337-6.799 6.599-15.549 8.35 0 0-1.867 4.664-.325 6.327.944.997 3.693 2.905 6.138 1.444 2.444-1.462 31.632-22.072 31.632-22.072s4.144-1.304 6.221-.613c3.326 1.112 3.568 5.855 3.568 5.855l4.69-2.406.408-2.556s3.463-.446 5.194 2.337c.66 1.067 6.316 3.457 9.463 1.111 3.987-3.002 1.196-7.675 1.196-7.675s-2.822-6.905-20.238-12.987c-16.02-5.575-41.872-6.127-41.872-6.127l-295.726.29s-18.549.577-22.725 1.172c-4.217.586-16.807 4.962-19.262 7.001-2.434 2.03-10.964 6.617-10.964 6.617s-.566 4.07-1.626 6.695c-1.05 2.634-6.81 11.114-10.145 16.164-3.075 4.656-1.574 5.277-1.574 5.277s3.672 7.273 2.276 13.101c-1.405 5.846-2.444 11.194-7.826 13.67-3.987 1.82-9.548 3.606-13.146-1.172-.944-1.252-2.77-5.216-.902-9.347 2.34-5.164 8.403-10.222 7.994-10.782-3.231-4.472-16.262-14.554-17.993-22.343-2.182-9.828-1.731-18.02-1.731-18.02s-4.354 5.881-9.075 7.728c-4.113 1.61-8.614 4.21-8.614 4.21L10 212.444s2.33-.997 5.466-1.592c3.148-.578 6.295-2.03 6.295-2.03"/>
</svg>
